X:52
T:Polonesse in D Dur No 38
S:Ur Anders Larssons notbok 
O:Östra Ryd, Östergötland
C: 
R:Slängpolska
B: Anders Larssons notbok
B:http://www.smus.se/earkiv/fmk/browselarge.php?lang=sw&katalogid=M+189&bildnr=00012
M:3/4
L:1/16
K:D
f2fa g2ec d2e2 | f2fa g2ec d2e2 | d2ef g4 g2f2 | Tf4 e4 ::
a2a2 f2a2f2a2 | g2g2 e2g2e2g2 | a2a2 fafa fafa | g2g2 egeg egeg | defg a4 d2f2 | egec d4 D4 :|]

